icons/recieve.svg

<svg width="14" height="14" viewBox="0 0 14 14" fill="none" xmlns="http://www.w3.org/2000/svg">
<path d="M9.5 5.25H10C10.5523 5.25 11 5.69772 11 6.25V11.25C11 11.8023 10.5523 12.25 10 12.25H4C3.44772 12.25 3 11.8023 3 11.25V6.25C3 5.69772 3.44772 5.25 4 5.25H4.5" stroke="red" stroke-linecap="round" stroke-linejoin="round"/>
<path d="M7 1.75V8.75M7 8.75L5 6.75M7 8.75L9 6.75" stroke="red" stroke-linecap="round"/>
</svg>

<svg xmlns="http://www.w3.org/2000/svg" width="14" height="14" fill="none" viewBox="0 0 14 14"><path stroke="red" stroke-linecap="round" stroke-linejoin="round" d="M9.5 5.25h.5a1 1 0 0 1 1 1v5a1 1 0 0 1-1 1H4a1 1 0 0 1-1-1v-5a1 1 0 0 1 1-1h.5"/><path stroke="red" stroke-linecap="round" d="M7 1.75v7m0 0-2-2m2 2 2-2"/></svg>
